; generated by PrusaSlicer 2.4.0+win64 on 2022-02-25 at 16:48:55 UTC


;
;

;
;
; 

; external perimeters extrusion width = 0.45mm
; perimeters extrusion width = 0.45mm
; infill extrusion width = 0.45mm
; solid infill extrusion width = 0.45mm
; top infill extrusion width = 0.45mm
; support material extrusion width = 0.35mm
; first layer extrusion width = 0.42mm

; external perimeters extrusion width = 0.45mm
; perimeters extrusion width = 0.45mm
; infill extrusion width = 0.45mm
; solid infill extrusion width = 0.45mm
; top infill extrusion width = 0.45mm
; support material extrusion width = 0.35mm
; first layer extrusion width = 0.42mm

; external perimeters extrusion width = 0.45mm
; perimeters extrusion width = 0.45mm
; infill extrusion width = 0.45mm
; solid infill extrusion width = 0.45mm
; top infill extrusion width = 0.45mm
; support material extrusion width = 0.35mm
; first layer extrusion width = 0.42mm

; external perimeters extrusion width = 0.45mm
; perimeters extrusion width = 0.45mm
; infill extrusion width = 0.45mm
; solid infill extrusion width = 0.45mm
; top infill extrusion width = 0.45mm
; support material extrusion width = 0.35mm
; first layer extrusion width = 0.42mm

M73 P0 R173
M107
;TYPE:Custom
; iForge Ultimaker
T0
G21 ;metric values
G90 ;absolute positioning
M82 ;set extruder to absolute mode
M107 ;start with the fan off

G28 Z0 ;home Z to bottom endstops
G28 X0 Y220 ;home X/Y to endstops

M104 S215 ; set extruder temp
M140 S60 ; set bed temp
M190 S60 ; wait for bed temp
M109 S215 ; wait for extruder temp

G1 X40 Y0 F4000 ;move X/Y to front of printer
G1 Z15.0 F9000 ;move the platform to 15mm
G1 Z0.2 Y0.0 F1000.0 ; go outside print area
G92 E0.0
G1 X100.0 E9.0 F1000.0 ; intro line
G1 X160.0 E14.25 F1000.0 ; intro line
G92 E0.0

G1 F9000
;Put printing message on LCD screen
M117 Printing...
G21 ; set units to millimeters
G90 ; use absolute coordinates
M82 ; use absolute distances for extrusion
G92 E0
; iForge PLA - Filament gcode
M107
;LAYER_CHANGE
;Z:0.3
;HEIGHT:0.3
;BEFORE_LAYER_CHANGE
;0.3

G1 Z.3 F6000
G1 E-6.5 F1500
G92 E0
G1 X84.526 Y81.777 F6000
G1 E6.5 F1500
;TYPE:Skirt/Brim
;WIDTH:0.42
G1 F1200
G1 X86.403 Y79.969 E6.54357
G1 X88.127 Y78.528 E6.58116
G1 X89.754 Y77.326 E6.61499
G1 X91.436 Y76.227 E6.6486
G1 X92.8 Y75.43 E6.67501
G1 X94.192 Y74.697 E6.70133
G1 X95.496 Y74.081 E6.72543
G1 X96.886 Y73.493 E6.75068
G1 X98.493 Y72.899 E6.77933
G1 X100.216 Y72.356 E6.80953
G1 X100.613 Y72.254 E6.81639
G1 X101.855 Y71.618 E6.83973
G1 X103.51 Y71.063 E6.86893
G1 X116.49 Y71.063 E7.08599
G1 X118.145 Y71.618 E7.11518
G1 X119.385 Y72.253 E7.13848
G1 X119.751 Y72.347 E7.14481
G1 X121.461 Y72.883 E7.17477
G1 X123.019 Y73.456 E7.20253
G1 X124.55 Y74.101 E7.23031
G1 X125.904 Y74.745 E7.2554
G1 X127.232 Y75.447 E7.28051
G1 X128.566 Y76.228 E7.30637
G1 X130.285 Y77.353 E7.34072
G1 X131.906 Y78.554 E7.37446
G1 X133.457 Y79.845 E7.4082
G1 X135.414 Y81.694 E7.45323
G1 X136.674 Y83.702 E7.49288
G1 X137.998 Y84.592 E7.51955
G1 X139.824 Y86.519 E7.56394
G1 X141.124 Y88.078 E7.5979
G1 X142.337 Y89.715 E7.63197
G1 X143.472 Y91.451 E7.66665
G1 X144.244 Y92.77 E7.69221
G1 X144.944 Y94.095 E7.71727
G1 X145.584 Y95.442 E7.74222
G1 X146.233 Y96.98 E7.77013
G1 X146.807 Y98.538 E7.7979
G1 X147.343 Y100.249 E7.82788
G1 X147.448 Y100.658 E7.83495
G1 X147.571 Y100.864 E7.83896
G1 X148.486 Y103.023 E7.87817
G1 X148.825 Y105.065 E7.9128
G1 X148.706 Y115.997 E8.09562
G1 X148.25 Y117.7 E8.12511
G1 X147.566 Y119.168 E8.15219
G1 X147.442 Y119.363 E8.15605
G1 X147.34 Y119.762 E8.16294
G1 X146.81 Y121.452 E8.19256
G1 X146.237 Y123.01 E8.22032
G1 X145.641 Y124.431 E8.24609
G1 X144.978 Y125.838 E8.2721
G1 X144.252 Y127.215 E8.29814
G1 X143.465 Y128.561 E8.3242
G1 X142.447 Y130.126 E8.35543
G1 X141.164 Y131.87 E8.39164
G1 X139.785 Y133.525 E8.42766
G1 X138.109 Y135.296 E8.46844
G1 X136.647 Y136.35 E8.49859
G1 X135.574 Y138.115 E8.53314
G1 X133.677 Y139.959 E8.57738
G1 X131.803 Y141.527 E8.61824
G1 X130.219 Y142.692 E8.65111
G1 X128.564 Y143.773 E8.68418
G1 X127.188 Y144.577 E8.71083
G1 X125.767 Y145.323 E8.73766
G1 X124.449 Y145.943 E8.76202
G1 X123.103 Y146.511 E8.78645
G1 X121.445 Y147.122 E8.81601
G1 X119.754 Y147.653 E8.84565
G1 X119.318 Y147.764 E8.85318
G1 X118.991 Y147.961 E8.85955
G1 X116.736 Y148.865 E8.90019
G1 X114.867 Y149.135 E8.93176
G1 X103.988 Y149.014 E9.11372
G1 X102.327 Y148.57 E9.14247
G1 X100.64 Y147.754 E9.1738
G1 X100.248 Y147.653 E9.18057
G1 X98.538 Y147.117 E9.21054
G1 X96.989 Y146.547 E9.23816
G1 X95.546 Y145.941 E9.26432
G1 X94.131 Y145.272 E9.2905
G1 X92.761 Y144.549 E9.3164
G1 X91.441 Y143.776 E9.34198
G1 X89.706 Y142.64 E9.37667
G1 X88.094 Y141.447 E9.41021
G1 X86.552 Y140.164 E9.44375
G1 X84.586 Y138.306 E9.48899
G1 X83.365 Y136.353 E9.5275
G1 X82.132 Y135.511 E9.55248
G1 X80.281 Y133.599 E9.59699
G1 X78.908 Y131.962 E9.63273
G1 X77.658 Y130.277 E9.6678
G1 X76.538 Y128.565 E9.70202
G1 X75.752 Y127.223 E9.72802
G1 X75.04 Y125.873 E9.75354
G1 X74.411 Y124.548 E9.77808
G1 X73.774 Y123.039 E9.80547
G1 X73.201 Y121.484 E9.83319
G1 X72.666 Y119.783 E9.86301
G1 X72.565 Y119.387 E9.86984
G1 X71.928 Y118.145 E9.89318
G1 X71.376 Y116.498 E9.92223
G1 X71.289 Y104.021 E10.13089
M73 P0 R172
G1 X71.739 Y102.331 E10.16014
G1 X72.434 Y100.833 E10.18776
G1 X72.558 Y100.637 E10.19163
G1 X72.66 Y100.239 E10.1985
G1 X73.19 Y98.548 E10.22814
G1 X73.76 Y96.999 E10.25575
G1 X74.355 Y95.577 E10.28152
G1 X75.019 Y94.17 E10.30754
G1 X75.747 Y92.786 E10.3337
G1 X76.528 Y91.451 E10.35956
G1 X77.561 Y89.863 E10.39125
G1 X78.846 Y88.117 E10.4275
G1 X80.225 Y86.464 E10.46349
G1 X82.004 Y84.604 E10.50654
G1 X83.212 Y83.751 E10.53127
G1 X83.279 Y83.613 E10.53384
G1 X84.492 Y81.826 E10.56995
G1 X84.783 Y82.023 F6000
G1 F1200
G1 X86.635 Y80.238 E10.61297
G1 X88.351 Y78.804 E10.65037
G1 X89.961 Y77.615 E10.68384
G1 X91.627 Y76.527 E10.71712
G1 X92.976 Y75.739 E10.74324
G1 X94.355 Y75.014 E10.76929
G1 X95.644 Y74.404 E10.79315
G1 X97.014 Y73.826 E10.81801
G1 X98.612 Y73.234 E10.84652
G1 X100.318 Y72.697 E10.87642
G1 X100.767 Y72.582 E10.88417
G1 X100.914 Y72.486 E10.88712
G1 X101.979 Y71.951 E10.90704
G1 X103.596 Y71.41 E10.93556
G1 X116.404 Y71.41 E11.14975
G1 X118.021 Y71.951 E11.17827
G1 X119.085 Y72.486 E11.19819
G1 X119.231 Y72.58 E11.20109
G1 X119.65 Y72.687 E11.20832
G1 X121.342 Y73.218 E11.23799
G1 X122.885 Y73.785 E11.26547
G1 X124.401 Y74.424 E11.29298
G1 X125.742 Y75.062 E11.31781
G1 X127.055 Y75.756 E11.34266
G1 X128.375 Y76.528 E11.36824
G1 X130.078 Y77.642 E11.40226
G1 X131.683 Y78.83 E11.43566
G1 X133.225 Y80.114 E11.46922
G1 X135.153 Y81.936 E11.51358
G1 X136.413 Y83.956 E11.55339
G1 X137.754 Y84.851 E11.58035
G1 X139.562 Y86.759 E11.6243
G1 X140.847 Y88.302 E11.65789
G1 X142.048 Y89.923 E11.69162
G1 X143.172 Y91.642 E11.72597
G1 X143.935 Y92.946 E11.75124
G1 X144.628 Y94.258 E11.77605
G1 X145.262 Y95.591 E11.80074
G1 X145.901 Y97.106 E11.82824
G1 X146.471 Y98.657 E11.85587
G1 X147.002 Y100.351 E11.88556
G1 X147.117 Y100.798 E11.89328
G1 X147.249 Y101.016 E11.89755
G1 X148.139 Y103.103 E11.93548
G1 X148.469 Y105.077 E11.96896
G1 X148.357 Y115.927 E12.15042
G1 X147.921 Y117.564 E12.17875
G1 X147.249 Y119.006 E12.20535
G1 X147.112 Y119.218 E12.20957
G1 X146.999 Y119.66 E12.2172
G1 X146.475 Y121.333 E12.24652
G1 X145.905 Y122.883 E12.27415
G1 X145.315 Y124.29 E12.29965
G1 X144.658 Y125.682 E12.3254
G1 X143.943 Y127.039 E12.35105
G1 X143.165 Y128.37 E12.37683
G1 X142.151 Y129.927 E12.4079
G1 X140.888 Y131.647 E12.44358
G1 X139.523 Y133.284 E12.47923
G1 X137.862 Y135.039 E12.51964
G1 X136.38 Y136.104 E12.55016
G1 X135.309 Y137.876 E12.58479
G1 X133.433 Y139.699 E12.62854
G1 X131.588 Y141.244 E12.66879
G1 X130.013 Y142.403 E12.70149
G1 X128.373 Y143.473 E12.73423
G1 X127.019 Y144.264 E12.76046
G1 X125.612 Y145.003 E12.78703
G1 X124.308 Y145.617 E12.81114
G1 X122.976 Y146.178 E12.83531
G1 X121.334 Y146.784 E12.86458
G1 X119.652 Y147.312 E12.89406
G1 X119.178 Y147.433 E12.90225
G1 X118.844 Y147.637 E12.90879
G1 X116.663 Y148.517 E12.94812
G1 X114.857 Y148.779 E12.97864
G1 X104.058 Y148.664 E13.15924
G1 X102.435 Y148.231 E13.18734
G1 X100.764 Y147.418 E13.21842
G1 X100.35 Y147.313 E13.22556
G1 X98.657 Y146.782 E13.25523
G1 X97.115 Y146.215 E13.28271
G1 X95.687 Y145.615 E13.30861
G1 X94.293 Y144.956 E13.3344
G1 X92.938 Y144.24 E13.36003
G1 X91.632 Y143.476 E13.38533
G1 X89.913 Y142.351 E13.41968
G1 X88.31 Y141.164 E13.45305
G1 X86.784 Y139.894 E13.48624
G1 X84.847 Y138.064 E13.53082
G1 X83.628 Y136.101 E13.56945
G1 X82.374 Y135.251 E13.59478
G1 X80.541 Y133.356 E13.63887
G1 X79.184 Y131.737 E13.6742
G1 X77.947 Y130.069 E13.70892
G1 X76.838 Y128.374 E13.74281
G1 X76.061 Y127.047 E13.76852
G1 X75.357 Y125.711 E13.79378
G1 X74.734 Y124.399 E13.81806
G1 X74.107 Y122.912 E13.84505
G1 X73.536 Y121.365 E13.87263
G1 X73.007 Y119.681 E13.90215
G1 X72.892 Y119.233 E13.90989
G1 X72.796 Y119.086 E13.91283
G1 X72.262 Y118.021 E13.93275
G1 X71.722 Y116.411 E13.96114
G1 X71.639 Y104.09 E14.1672
G1 X72.079 Y102.437 E14.1958
G1 X72.751 Y100.994 E14.22242
G1 X72.888 Y100.782 E14.22665
G1 X73 Y100.341 E14.23426
G1 X73.525 Y98.667 E14.2636
G1 X74.092 Y97.125 E14.29107
G1 X74.682 Y95.718 E14.31658
G1 X75.339 Y94.325 E14.34233
G1 X76.056 Y92.962 E14.3681
G1 X76.828 Y91.641 E14.39369
G1 X77.857 Y90.061 E14.42522
G1 X79.122 Y88.341 E14.46094
G1 X80.486 Y86.706 E14.49653
G1 X82.248 Y84.862 E14.53919
G1 X83.496 Y83.986 E14.56469
G1 X83.583 Y83.799 E14.56814
G1 X84.75 Y82.073 E14.60298
G1 X85.042 Y82.27 F6000
G1 F1200
G1 X86.868 Y80.507 E14.64543
G1 X88.575 Y79.08 E14.68263
G1 X90.168 Y77.905 E14.71575
G1 X91.818 Y76.827 E14.7487
G1 X93.152 Y76.048 E14.77453
G1 X94.517 Y75.33 E14.80032
G1 X95.793 Y74.727 E14.82392
G1 X97.141 Y74.158 E14.8484
G1 X98.732 Y73.569 E14.87677
G1 X100.42 Y73.037 E14.90636
G1 X100.914 Y72.911 E14.9149
G1 X101.085 Y72.798 E14.91832
G1 X102.105 Y72.284 E14.93742
G1 X103.682 Y71.756 E14.96523
G1 X116.318 Y71.756 E15.17656
G1 X117.895 Y72.284 E15.20438
G1 X118.915 Y72.798 E15.22347
G1 X119.084 Y72.91 E15.22686
G1 X119.548 Y73.028 E15.23487
G1 X121.224 Y73.553 E15.26424
G1 X122.758 Y74.118 E15.29158
G1 X124.252 Y74.747 E15.31868
G1 X125.579 Y75.378 E15.34326
G1 X126.879 Y76.065 E15.36785
G1 X128.184 Y76.828 E15.39314
G1 X129.87 Y77.931 E15.42683
G1 X131.467 Y79.113 E15.46005
G1 X132.994 Y80.384 E15.49327
G1 X134.892 Y82.179 E15.53696
G1 X136.152 Y84.209 E15.57692
G1 X137.51 Y85.111 E15.60418
G1 X139.3 Y87 E15.6477
G1 X140.571 Y88.526 E15.68091
G1 X141.759 Y90.13 E15.7143
G1 X142.872 Y91.833 E15.74832
G1 X143.626 Y93.122 E15.7733
G1 X144.311 Y94.421 E15.79785
G1 X144.939 Y95.74 E15.82229
G1 X145.572 Y97.241 E15.84952
G1 X146.136 Y98.776 E15.87688
G1 X146.662 Y100.452 E15.90626
G1 X146.786 Y100.94 E15.91467
G1 X146.928 Y101.17 E15.91919
G1 X147.792 Y103.183 E15.95583
G1 X148.114 Y105.09 E15.98817
G1 X148.007 Y115.857 E16.16824
G1 X147.581 Y117.457 E16.19594
G1 X146.932 Y118.843 E16.22153
G1 X146.782 Y119.072 E16.22611
G1 X146.658 Y119.559 E16.2345
G1 X146.139 Y121.215 E16.26352
G1 X145.572 Y122.757 E16.29101
G1 X144.988 Y124.149 E16.31624
G1 X144.338 Y125.527 E16.34173
G1 X143.634 Y126.863 E16.36699
G1 X142.864 Y128.18 E16.39249
G1 X141.856 Y129.729 E16.42341
G1 X140.611 Y131.423 E16.45857
G1 X139.261 Y133.044 E16.49384
G1 X137.616 Y134.782 E16.53387
G1 X136.113 Y135.858 E16.56477
G1 X135.045 Y137.638 E16.59949
G1 X133.19 Y139.44 E16.64274
G1 X131.373 Y140.961 E16.68238
G1 X129.806 Y142.113 E16.7149
G1 X128.183 Y143.173 E16.74732
G1 X126.843 Y143.955 E16.77326
G1 X125.457 Y144.683 E16.79943
G1 X124.166 Y145.291 E16.8233
G1 X122.849 Y145.846 E16.8472
G1 X121.224 Y146.446 E16.87618
G1 X119.551 Y146.971 E16.90551
G1 X119.036 Y147.102 E16.91438
G1 X118.696 Y147.313 E16.92108
G1 X116.55 Y148.179 E16.95977
G1 X114.847 Y148.424 E16.98855
G1 X104.128 Y148.315 E17.16781
G1 X102.543 Y147.891 E17.19526
G1 X101.032 Y147.164 E17.2233
G1 X100.915 Y147.09 E17.22561
G1 X100.452 Y146.972 E17.23361
G1 X98.776 Y146.446 E17.26298
G1 X97.242 Y145.882 E17.29032
G1 X95.836 Y145.292 E17.31582
G1 X94.456 Y144.639 E17.34135
G1 X93.114 Y143.931 E17.36672
G1 X91.823 Y143.176 E17.39173
G1 X90.121 Y142.062 E17.42576
G1 X88.533 Y140.887 E17.45878
G1 X87.016 Y139.624 E17.4918
G1 X85.108 Y137.821 E17.5357
G1 X83.89 Y135.849 E17.57446
G1 X82.617 Y134.99 E17.60015
G1 X80.801 Y133.113 E17.64382
G1 X79.46 Y131.513 E17.67874
G1 X78.236 Y129.862 E17.71311
G1 X77.138 Y128.183 E17.74666
G1 X76.37 Y126.871 E17.77208
G1 X75.673 Y125.548 E17.79709
G1 X75.057 Y124.25 E17.82112
G1 X74.439 Y122.785 E17.8477
G1 X73.871 Y121.246 E17.87514
G1 X73.347 Y119.579 E17.90436
G1 X73.222 Y119.086 E17.91288
G1 X73.108 Y118.915 E17.9163
G1 X72.595 Y117.896 E17.93539
G1 X72.068 Y116.325 E17.96309
G1 X71.989 Y104.158 E18.16657
G1 X72.418 Y102.544 E18.1945
G1 X73.067 Y101.157 E18.22011
G1 X73.218 Y100.928 E18.2247
G1 X73.341 Y100.442 E18.23307
G1 X73.861 Y98.785 E18.26211
G1 X74.424 Y97.251 E18.28945
G1 X75.008 Y95.859 E18.31469
G1 X75.655 Y94.488 E18.34005
G1 X76.366 Y93.138 E18.36556
G1 X77.129 Y91.831 E18.39086
G1 X78.152 Y90.259 E18.42223
G1 X79.399 Y88.564 E18.45743
G1 X80.747 Y86.947 E18.49263
G1 X82.493 Y85.121 E18.53489
G1 X83.783 Y84.22 E18.5612
G1 X83.888 Y83.983 E18.56553
G1 X85.008 Y82.32 E18.59908
G1 X85.3 Y82.515 F6000
G1 F1200
G1 X87.101 Y80.776 E18.64095
G1 X88.799 Y79.357 E18.67796
G1 X90.375 Y78.194 E18.71071
G1 X92.008 Y77.127 E18.74334
G1 X93.327 Y76.357 E18.76888
G1 X94.679 Y75.647 E18.79441
G1 X95.941 Y75.051 E18.81776
G1 X97.268 Y74.49 E18.84185
G1 X98.851 Y73.904 E18.87008
G1 X100.522 Y73.378 E18.89936
G1 X101.063 Y73.241 E18.9087
G1 X101.256 Y73.11 E18.9126
G1 X102.23 Y72.617 E18.93085
G1 X103.767 Y72.102 E18.95797
G1 X116.233 Y72.102 E19.16643
G1 X117.77 Y72.617 E19.19355
G1 X118.744 Y73.11 E19.2118
G1 X118.936 Y73.239 E19.21567
G1 X119.446 Y73.369 E19.22448
G1 X121.105 Y73.889 E19.25355
G1 X122.624 Y74.447 E19.28061
G1 X124.103 Y75.07 E19.30745
G1 X125.416 Y75.694 E19.33177
G1 X126.703 Y76.374 E19.35611
G1 X127.994 Y77.128 E19.3811
G1 X129.663 Y78.22 E19.41446
G1 X131.243 Y79.39 E19.44735
G1 X132.762 Y80.654 E19.48038
G1 X134.63 Y82.421 E19.5234
G1 X135.89 Y84.463 E19.56352
G1 X137.266 Y85.37 E19.59107
G1 X139.038 Y87.24 E19.63415
G1 X140.294 Y88.749 E19.667
G1 X141.47 Y90.338 E19.70005
G1 X142.572 Y92.023 E19.73373
G1 X143.317 Y93.298 E19.75842
G1 X143.995 Y94.583 E19.78272
G1 X144.616 Y95.889 E19.8069
G1 X145.239 Y97.367 E19.83373
G1 X145.801 Y98.894 E19.86094
G1 X146.321 Y100.554 E19.89002
G1 X146.455 Y101.083 E19.89915
G1 X146.608 Y101.324 E19.90392
G1 X147.445 Y103.264 E19.93926
G1 X147.758 Y105.103 E19.97045
G1 X147.658 Y115.787 E20.14914
G1 X147.242 Y117.35 E20.17619
G1 X146.617 Y118.679 E20.20075
G1 X146.453 Y118.925 E20.20569
G1 X146.318 Y119.457 E20.21487
G1 X145.804 Y121.096 E20.24359
G1 X145.24 Y122.631 E20.27094
G1 X144.662 Y124.007 E20.29591
G1 X144.021 Y125.365 E20.32101
G1 X143.325 Y126.687 E20.34601
G1 X142.564 Y127.989 E20.37123
G1 X141.561 Y129.531 E20.40198
G1 X140.328 Y131.208 E20.4368
G1 X138.999 Y132.804 E20.47152
G1 X137.37 Y134.525 E20.51116
G1 X135.846 Y135.611 E20.54246
G1 X134.78 Y137.399 E20.57726
G1 X132.947 Y139.18 E20.62
G1 X131.157 Y140.678 E20.65903
G1 X129.607 Y141.818 E20.69121
G1 X127.992 Y142.873 E20.72347
G1 X126.667 Y143.646 E20.74913
G1 X125.302 Y144.363 E20.77491
G1 X124.025 Y144.965 E20.79853
G1 X122.722 Y145.514 E20.82217
G1 X121.113 Y146.108 E20.85085
G1 X119.449 Y146.63 E20.88002
G1 X118.894 Y146.771 E20.8896
G1 X118.547 Y146.99 E20.89646
G1 X116.478 Y147.83 E20.93381
G1 X114.837 Y148.068 E20.96153
G1 X104.199 Y147.966 E21.13945
G1 X102.651 Y147.552 E21.16623
G1 X101.198 Y146.849 E21.19323
G1 X101.061 Y146.76 E21.19597
G1 X100.554 Y146.631 E21.20472
G1 X98.895 Y146.111 E21.2338
G1 X97.368 Y145.55 E21.261
G1 X95.977 Y144.965 E21.28623
G1 X94.618 Y144.323 E21.31137
G1 X93.29 Y143.622 E21.33648
G1 X92.014 Y142.876 E21.3612
G1 X90.328 Y141.773 E21.39489
G1 X88.757 Y140.611 E21.42758
G1 X87.248 Y139.355 E21.46042
G1 X85.369 Y137.579 E21.50364
G1 X84.153 Y135.597 E21.54253
G1 X82.859 Y134.729 E21.56858
